X:339
T:B339-  O Love If E'er Thou'lt Ease a Heart
Q:1/4=120
L:1/4
M:C
K:Am
zec3/2B/|cBA3/2B/|^G3/2G/Ad|B3/2B/c2|\
ze^c3/2c/|defd|B3/2B/e3/2B/|cAdB|\
^G3/2B/d^F|^F3/2E/E2|EE/F/G^F|^G3/2G/A3/2G/|\
ABcB|^c3/2c/d3/2^d/|e3/2B/cA|d3/2e/f3/2":s:"e/|\
d3/2^c/de|^c3/2B/=B3/2^c/|d3/2B/cA|A3/2^G/.A2|]

